build/img/icons/icon-phone.svg

<svg width="12" height="12" viewBox="0 0 12 12" fill="none" xmlns="http://www.w3.org/2000/svg">
<path d="M7.19401 2.9113C7.66161 3.00236 8.09135 3.23061 8.42823 3.56685C8.76511 3.90309 8.9938 4.33201 9.08504 4.79872M7.19401 1C8.16551 1.10772 9.07143 1.54194 9.76305 2.23136C10.4547 2.92078 10.8909 3.82443 11 4.79394M10.5213 8.60699V10.0405C10.5218 10.1735 10.4945 10.3053 10.4411 10.4272C10.3877 10.5491 10.3093 10.6586 10.2111 10.7485C10.1128 10.8385 9.99683 10.907 9.87053 10.9496C9.74423 10.9923 9.61039 11.0081 9.4776 10.9961C8.00444 10.8364 6.58936 10.3339 5.34607 9.52919C4.18935 8.79557 3.20865 7.81675 2.47362 6.66224C1.66454 5.41569 1.16103 3.99644 1.00389 2.51949C0.991922 2.38735 1.00766 2.25418 1.05008 2.12845C1.09251 2.00271 1.16071 1.88717 1.25033 1.78919C1.33994 1.6912 1.44902 1.61291 1.57062 1.55931C1.69221 1.5057 1.82365 1.47795 1.95658 1.47783H3.3928C3.62514 1.47554 3.85038 1.55766 4.02654 1.70887C4.20271 1.86008 4.31777 2.07007 4.35029 2.29969C4.41091 2.75843 4.52333 3.20886 4.6854 3.64238C4.74982 3.8134 4.76376 3.99927 4.72557 4.17796C4.68739 4.35665 4.59869 4.52068 4.46997 4.65059L3.86197 5.25743C4.54348 6.45369 5.53587 7.44417 6.73442 8.12439L7.34242 7.51755C7.47258 7.38908 7.63692 7.30054 7.81595 7.26243C7.99498 7.22432 8.18121 7.23824 8.35256 7.30253C8.78691 7.46429 9.2382 7.5765 9.69782 7.637C9.93038 7.66975 10.1428 7.78666 10.2946 7.96551C10.4464 8.14435 10.5271 8.37265 10.5213 8.60699Z" stroke="#BB9D6F" stroke-width="0.7" stroke-linecap="round" stroke-linejoin="round"/>
</svg>

<svg width="12" height="12" fill="none" xmlns="http://www.w3.org/2000/svg"><path d="M7.194 2.911A2.395 2.395 0 019.085 4.8M7.194 1a4.312 4.312 0 012.569 1.231A4.297 4.297 0 0111 4.794m-.479 3.813v1.434a.955.955 0 01-1.043.955A9.485 9.485 0 015.346 9.53a9.327 9.327 0 01-2.872-2.867 9.445 9.445 0 01-1.47-4.143.954.954 0 01.953-1.041h1.436a.959.959 0 01.957.822c.06.458.173.909.335 1.342a.954.954 0 01-.215 1.009l-.608.606a7.653 7.653 0 002.872 2.867l.608-.606a.958.958 0 011.01-.215c.435.161.886.274 1.346.334a.958.958 0 01.823.97z" stroke="#EFC07A" stroke-width=".7" stroke-linecap="round" stroke-linejoin="round"/></svg>
